X: 19286
T: J Carly's
R: jig
M: 6/8
K: Dmajor
|:A|d>dd dfd|edB BAA|d>dd dfb|afd e2 A|
d>dd dfd|edB BAA|d>dd dfb|afe d2:|
|:b|afb afd|edB BAA|d>fa baf|e2 f e2 b|
afb afd|edB BAA|d>dd dfb|afe d2:|

